X: 10060
T: LIZABETH'S HORNPIPE
C: Bob McQuillen 15 April 93
B: Bob's Note Book 10 #60
%R: hornpipe, reel
Z: 2020 John Chambers <jc:trillian.mit.edu>
M: C
L: 1/8
K: D
AG \
| FDFA BAde | f2fd edBd | ABAG F2A2 | BdAF E2AG |\
| FDFA BAde | f2af edBd | Adfd ceag | f2d2 d2  :|
|: fg \
| a2fd AFDF | GBAG FAdf | a2fd AFDF | Adfd e2ag |\
| fafd A2FA | BGBd A2dB | Adfa gecd | e2d2 d2  :|
%%begintext align
%% Liz Harrington
%% lives up in Ocean Park, ME. She's a good
%% friend of Ken Wilson, and she's a wonderful
%% dancer, and it's always nice to see them both
%% when the occasion presents itself - hope it
%% happens again soon!
%%endtext
